X: 11193
T: Dunmore Lasses, The
R: reel
M: 4/4
K: Eminor
|:EDEF GFGA|Be (3~ede Be ~e2|EDEF (3GFG BG|~A2 BA (3GFE FD|
EDEF GFGA|Be (3~ede ~eBef|gbag fedB|1 ~A2 BA (3GFE FD:|2 ~A2 BA GEEd||
|:~e2 ge bege|defa gfed|~e2 ge bege|~fdB^c defd|
~e2 ge bege|defg ~a2 ga|(3bag af gfe^d|1 ~e2 BA GEEd:|2 ~e2 BA (3GFE FD||

